images/transit/bus-outbound.svg

<?xml version="1.0" standalone="no"?><!DOCTYPE svg PUBLIC "-//W3C//DTD SVG 1.1//EN" "http://www.w3.org/Graphics/SVG/1.1/DTD/svg11.dtd"><svg width="288px" height="264px" version="1.1" xmlns="http://www.w3.org/2000/svg" xmlns:xlink="http://www.w3.org/1999/xlink" xml:space="preserve" style="fill-rule:evenodd;clip-rule:evenodd;stroke-linejoin:round;stroke-miterlimit:1.41421;"><g><g id="bus-outbound" transform="matrix(0.5,0,0,0.5,-129.649,-249.794)"><g transform="matrix(2.00006,0,0,2.00006,-505.134,-699.462)"><path d="M623.511,666.356l21.376,-1.11l0.211,7.823l4.228,-0.635l-0.023,-13.259l-26.004,2.742l0.212,4.439Z" style="fill:#2a2b2a;fill-rule:nonzero;"/></g><g transform="matrix(2.00006,0,0,2.00006,-505.134,-699.462)"><path d="M652.498,671.8l-0.847,32.349l-15.01,2.113l-2.748,-31.501l18.605,-2.961Z" style="fill:#2a2b2a;fill-rule:nonzero;"/></g><g transform="matrix(2.00006,0,0,2.00006,-505.134,-699.462)"><path d="M648.509,701.378l-8.524,1.213l-2.334,-24.807l11.191,-1.906l-0.333,25.5Z" style="fill:#f7f5f0;fill-rule:nonzero;"/></g><g transform="matrix(2.00006,0,0,2.00006,-505.134,-699.462)"><path d="M428.891,666.356l-21.376,-1.11l-0.21,7.823l-4.229,-0.635l0.022,-13.259l26.005,2.742l-0.212,4.439Z" style="fill:#2a2b2a;fill-rule:nonzero;"/></g><g transform="matrix(2.00006,0,0,2.00006,-505.134,-699.462)"><path d="M399.903,671.8l0.847,32.349l15.01,2.113l2.749,-31.501l-18.606,-2.961Z" style="fill:#2a2b2a;fill-rule:nonzero;"/></g><g transform="matrix(2.00006,0,0,2.00006,-505.134,-699.462)"><path d="M430.233,843.837l1.69,19.663l19.452,0l4.017,-19.874l-25.159,0.211Z" style="fill:#5c5e5f;fill-rule:nonzero;"/></g><g transform="matrix(2.00006,0,0,2.00006,-505.134,-699.462)"><path d="M450.53,843.626l0.845,19.45l6.018,-19.45l-6.863,0Z" style="fill:#2a2b2a;fill-rule:nonzero;"/></g><g transform="matrix(2.00006,0,0,2.00006,-505.134,-699.462)"><path d="M599.59,863.289l19.45,0.211l1.692,-19.452l-25.158,-0.211l4.016,19.452Z" style="fill:#5c5e5f;fill-rule:nonzero;"/></g><g transform="matrix(2.00006,0,0,2.00006,-505.134,-699.462)"><path d="M593.491,843.837l6.018,19.663l0.847,-19.663l-6.865,0Z" style="fill:#2a2b2a;fill-rule:nonzero;"/></g><g transform="matrix(2.00006,0,0,2.00006,-505.134,-699.462)"><path d="M430.103,844.034l190.71,0l7.188,-185.627l-202.539,1.69l4.641,183.937Z" style="fill:#e5e3dd;fill-rule:nonzero;"/></g><g transform="matrix(2.00006,0,0,2.00006,-505.134,-699.462)"><path d="M425.293,661.031l0,-21.144l25.807,-16.066l159.192,0l17.956,16.066l-0.459,21.055l-202.496,0.089Z" style="fill:#e5e3dd;fill-rule:nonzero;"/></g><g transform="matrix(2.00006,0,0,2.00006,-505.134,-699.462)"><path d="M458.685,731.876l2.328,-63.833l133.623,0.417l2.327,63.209l-138.278,0.207Z" style="fill:#2a2b2a;fill-rule:nonzero;"/></g><g transform="matrix(2.00006,0,0,2.00006,-505.134,-699.462)"><path d="M546.801,744.398l3.127,9.402l-18.691,0.036l3.043,-9.479l12.521,0.041Z" style="fill:#f19e75;fill-rule:nonzero;"/></g><g transform="matrix(2.00006,0,0,2.00006,-505.134,-699.462)"><path d="M519.046,744.398l3.127,9.402l-18.691,0.036l3.043,-9.479l12.521,0.041Z" style="fill:#f19e75;fill-rule:nonzero;"/></g><g transform="matrix(2.00006,0,0,2.00006,-505.134,-699.462)"><path d="M404.007,701.712l8.55,1.162l2.034,-25.078l-10.667,-1.834l0.083,25.75Z" style="fill:#f7f5f0;fill-rule:nonzero;"/></g><g transform="matrix(2.00006,0,0,2.00006,-505.134,-699.462)"><path d="M504.948,803.601l-0.211,19.162l44.398,0l0.001,-19.16l-44.188,-0.002Z" style="fill:#f7f5f0;fill-rule:nonzero;"/></g><g transform="matrix(2.00006,0,0,2.00006,-505.134,-699.462)"><path d="M615.091,816.196c0,3.618 -2.936,6.555 -6.554,6.555c-3.621,0 -6.554,-2.937 -6.554,-6.555c0,-3.621 2.933,-6.555 6.554,-6.555c3.618,0 6.554,2.934 6.554,6.555" style="fill:#c2bfbc;fill-rule:nonzero;"/></g><g transform="matrix(2.00006,0,0,2.00006,-505.134,-699.462)"><path d="M615.091,799.704c0,3.62 -2.936,6.555 -6.554,6.555c-3.621,0 -6.554,-2.935 -6.554,-6.555c0,-3.621 2.933,-6.555 6.554,-6.555c3.618,0 6.554,2.934 6.554,6.555" style="fill:#b01f25;fill-rule:nonzero;"/></g><g transform="matrix(2.00006,0,0,2.00006,-505.134,-699.462)"><path d="M615.091,782.787c0,3.62 -2.936,6.555 -6.554,6.555c-3.621,0 -6.554,-2.935 -6.554,-6.555c0,-3.62 2.933,-6.554 6.554,-6.554c3.618,0 6.554,2.934 6.554,6.554" style="fill:#f19e75;fill-rule:nonzero;"/></g><g transform="matrix(2.00006,0,0,2.00006,-505.134,-699.462)"><path d="M449.985,816.196c0,3.618 -2.934,6.555 -6.554,6.555c-3.618,0 -6.553,-2.937 -6.553,-6.555c0,-3.621 2.935,-6.555 6.553,-6.555c3.62,0 6.554,2.934 6.554,6.555" style="fill:#c2bfbc;fill-rule:nonzero;"/></g><g transform="matrix(2.00006,0,0,2.00006,-505.134,-699.462)"><path d="M449.985,799.704c0,3.62 -2.934,6.555 -6.554,6.555c-3.618,0 -6.553,-2.935 -6.553,-6.555c0,-3.621 2.935,-6.555 6.553,-6.555c3.62,0 6.554,2.934 6.554,6.555" style="fill:#b01f25;fill-rule:nonzero;"/></g><g transform="matrix(2.00006,0,0,2.00006,-505.134,-699.462)"><path d="M449.985,782.787c0,3.62 -2.934,6.555 -6.554,6.555c-3.618,0 -6.553,-2.935 -6.553,-6.555c0,-3.62 2.935,-6.554 6.553,-6.554c3.62,0 6.554,2.934 6.554,6.554" style="fill:#f19e75;fill-rule:nonzero;"/></g><g transform="matrix(2.00006,0,0,2.00006,-505.134,-699.462)"><path d="M473.172,716.13l-4.454,4.271l119.205,-0.105l-4.417,-4.166l-110.334,0Z" style="fill:#5c5e5f;fill-rule:nonzero;"/></g><g transform="matrix(2.00006,0,0,2.00006,-505.134,-699.462)"><path d="M473.172,698.632l-4.454,4.271l119.205,-0.105l-4.417,-4.166l-110.334,0Z" style="fill:#5c5e5f;fill-rule:nonzero;"/></g><g transform="matrix(2.00006,0,0,2.00006,-505.134,-699.462)"><path d="M473.172,679.797l-4.454,4.271l119.205,-0.105l-4.417,-4.166l-110.334,0Z" style="fill:#5c5e5f;fill-rule:nonzero;"/></g></g></g></svg>

<?xml version="1.0" encoding="UTF-8" standalone="no"?>
<!DOCTYPE svg PUBLIC "-//W3C//DTD SVG 1.1//EN" "http://www.w3.org/Graphics/SVG/1.1/DTD/svg11.dtd">
<svg width="100%" height="100%" viewBox="0 0 360 320" version="1.1" xmlns="http://www.w3.org/2000/svg" xmlns:xlink="http://www.w3.org/1999/xlink" xml:space="preserve" xmlns:serif="http://www.serif.com/" style="fill-rule:evenodd;clip-rule:evenodd;stroke-linejoin:round;stroke-miterlimit:2;">
    <g id="bus-outbound" transform="matrix(0.635,0,0,0.635,-167.535,-332.519)">
        <g transform="matrix(2.00006,0,0,2.00006,-505.134,-699.462)">
            <path d="M623.511,666.356L644.887,665.246L645.098,673.069L649.326,672.434L649.303,659.175L623.299,661.917L623.511,666.356Z" style="fill:rgb(41,43,41);fill-rule:nonzero;"/>
        </g>
        <g transform="matrix(2.00006,0,0,2.00006,-505.134,-699.462)">
            <path d="M652.498,671.8L651.651,704.149L636.641,706.262L633.893,674.761L652.498,671.8Z" style="fill:rgb(41,43,41);fill-rule:nonzero;"/>
        </g>
        <g transform="matrix(2.00006,0,0,2.00006,-505.134,-699.462)">
            <path d="M648.509,701.378L639.985,702.591L637.651,677.784L648.842,675.878L648.509,701.378Z" style="fill:rgb(245,245,239);fill-rule:nonzero;"/>
        </g>
        <g transform="matrix(2.00006,0,0,2.00006,-505.134,-699.462)">
            <path d="M428.891,666.356L407.515,665.246L407.305,673.069L403.076,672.434L403.098,659.175L429.103,661.917L428.891,666.356Z" style="fill:rgb(41,43,41);fill-rule:nonzero;"/>
        </g>
        <g transform="matrix(2.00006,0,0,2.00006,-505.134,-699.462)">
            <path d="M399.903,671.8L400.75,704.149L415.76,706.262L418.509,674.761L399.903,671.8Z" style="fill:rgb(41,43,41);fill-rule:nonzero;"/>
        </g>
        <g transform="matrix(2.00006,0,0,2.00006,-505.134,-699.462)">
            <path d="M430.233,843.837L431.923,863.5L451.375,863.5L455.392,843.626L430.233,843.837Z" style="fill:rgb(91,93,94);fill-rule:nonzero;"/>
        </g>
        <g transform="matrix(2.00006,0,0,2.00006,-505.134,-699.462)">
            <path d="M450.53,843.626L451.375,863.076L457.393,843.626L450.53,843.626Z" style="fill:rgb(41,43,41);fill-rule:nonzero;"/>
        </g>
        <g transform="matrix(2.00006,0,0,2.00006,-505.134,-699.462)">
            <path d="M599.59,863.289L619.04,863.5L620.732,844.048L595.574,843.837L599.59,863.289Z" style="fill:rgb(91,93,94);fill-rule:nonzero;"/>
        </g>
        <g transform="matrix(2.00006,0,0,2.00006,-505.134,-699.462)">
            <path d="M593.491,843.837L599.509,863.5L600.356,843.837L593.491,843.837Z" style="fill:rgb(41,43,41);fill-rule:nonzero;"/>
        </g>
        <g transform="matrix(2.00006,0,0,2.00006,-505.134,-699.462)">
            <path d="M430.103,844.034L620.813,844.034L628.001,658.407L425.462,660.097L430.103,844.034Z" style="fill:rgb(229,226,220);fill-rule:nonzero;"/>
        </g>
        <g transform="matrix(2.00006,0,0,2.00006,-505.134,-699.462)">
            <path d="M425.293,661.031L425.293,639.887L451.1,623.821L610.292,623.821L628.248,639.887L627.789,660.942L425.293,661.031Z" style="fill:rgb(229,226,220);fill-rule:nonzero;"/>
        </g>
        <g transform="matrix(2.00006,0,0,2.00006,-505.134,-699.462)">
            <path d="M458.686,731.876L461.013,668.043L594.637,668.46L596.963,731.669L458.686,731.876Z" style="fill:rgb(41,43,41);fill-rule:nonzero;"/>
        </g>
        <g transform="matrix(2.00006,0,0,2.00006,-505.134,-699.462)">
            <path d="M546.801,744.398L549.928,753.8L531.237,753.836L534.28,744.357L546.801,744.398Z" style="fill:rgb(240,157,116);fill-rule:nonzero;"/>
        </g>
        <g transform="matrix(2.00006,0,0,2.00006,-505.134,-699.462)">
            <path d="M519.046,744.398L522.173,753.8L503.482,753.836L506.525,744.357L519.046,744.398Z" style="fill:rgb(240,157,116);fill-rule:nonzero;"/>
        </g>
        <g transform="matrix(2.00006,0,0,2.00006,-505.134,-699.462)">
            <path d="M404.007,701.712L412.557,702.874L414.591,677.796L403.924,675.962L404.007,701.712Z" style="fill:rgb(245,245,239);fill-rule:nonzero;"/>
        </g>
        <g transform="matrix(2.00006,0,0,2.00006,-505.134,-699.462)">
            <path d="M504.948,803.601L504.737,822.763L549.135,822.763L549.136,803.603L504.948,803.601Z" style="fill:rgb(245,245,239);fill-rule:nonzero;"/>
        </g>
        <g transform="matrix(2.00006,0,0,2.00006,-505.134,-699.462)">
            <path d="M615.091,816.196C615.091,819.814 612.155,822.751 608.537,822.751C604.916,822.751 601.983,819.814 601.983,816.196C601.983,812.575 604.916,809.641 608.537,809.641C612.155,809.641 615.091,812.575 615.091,816.196" style="fill:rgb(194,191,188);fill-rule:nonzero;"/>
        </g>
        <g transform="matrix(2.00006,0,0,2.00006,-505.134,-699.462)">
            <path d="M615.091,799.704C615.091,803.324 612.155,806.259 608.537,806.259C604.916,806.259 601.983,803.324 601.983,799.704C601.983,796.083 604.916,793.149 608.537,793.149C612.155,793.149 615.091,796.083 615.091,799.704" style="fill:rgb(175,31,37);fill-rule:nonzero;"/>
        </g>
        <g transform="matrix(2.00006,0,0,2.00006,-505.134,-699.462)">
            <path d="M615.091,782.787C615.091,786.407 612.155,789.342 608.537,789.342C604.916,789.342 601.983,786.407 601.983,782.787C601.983,779.167 604.916,776.233 608.537,776.233C612.155,776.233 615.091,779.167 615.091,782.787" style="fill:rgb(240,157,116);fill-rule:nonzero;"/>
        </g>
        <g transform="matrix(2.00006,0,0,2.00006,-505.134,-699.462)">
            <path d="M449.985,816.196C449.985,819.814 447.051,822.751 443.431,822.751C439.813,822.751 436.878,819.814 436.878,816.196C436.878,812.575 439.813,809.641 443.431,809.641C447.051,809.641 449.985,812.575 449.985,816.196" style="fill:rgb(194,191,188);fill-rule:nonzero;"/>
        </g>
        <g transform="matrix(2.00006,0,0,2.00006,-505.134,-699.462)">
            <path d="M449.985,799.704C449.985,803.324 447.051,806.259 443.431,806.259C439.813,806.259 436.878,803.324 436.878,799.704C436.878,796.083 439.813,793.149 443.431,793.149C447.051,793.149 449.985,796.083 449.985,799.704" style="fill:rgb(175,31,37);fill-rule:nonzero;"/>
        </g>
        <g transform="matrix(2.00006,0,0,2.00006,-505.134,-699.462)">
            <path d="M449.985,782.787C449.985,786.407 447.051,789.342 443.431,789.342C439.813,789.342 436.878,786.407 436.878,782.787C436.878,779.167 439.813,776.233 443.431,776.233C447.051,776.233 449.985,779.167 449.985,782.787" style="fill:rgb(240,157,116);fill-rule:nonzero;"/>
        </g>
        <g transform="matrix(2.00006,0,0,2.00006,-505.134,-699.462)">
            <path d="M473.172,716.13L468.718,720.401L587.923,720.296L583.506,716.13L473.172,716.13Z" style="fill:rgb(91,93,94);fill-rule:nonzero;"/>
        </g>
        <g transform="matrix(2.00006,0,0,2.00006,-505.134,-699.462)">
            <path d="M473.172,698.632L468.718,702.903L587.923,702.798L583.506,698.632L473.172,698.632Z" style="fill:rgb(91,93,94);fill-rule:nonzero;"/>
        </g>
        <g transform="matrix(2.00006,0,0,2.00006,-505.134,-699.462)">
            <path d="M473.172,679.797L468.718,684.068L587.923,683.963L583.506,679.797L473.172,679.797Z" style="fill:rgb(91,93,94);fill-rule:nonzero;"/>
        </g>
    </g>
</svg>
